X:1
T:Title
L:1/8
M:4/4
K:Ab
V:1 treble nm="Grand Piano"
V:1
 z4 z2[Q:1/4=100] D=E | F2 F2 F=EDE | F6 GA | BAAG GFF=E | G2 F4 D=E | F2 F2 F=EDE | F6 GA | %7
 BAAG GFF=E | G2 F4 AB | c2 c2 dcBd | c6 BA | G2 G2 A2 BA | G6 AB | c2 c2 dcBd | c6 BA | %15
 G2 G2 A2 BA | G6 z2 |] %17

